public/assets/twitter_green.svg

<?xml version="1.0" encoding="UTF-8"?>
<svg width="75px" height="64px" viewBox="0 0 75 64" version="1.1" xmlns="http://www.w3.org/2000/svg" xmlns:xlink="http://www.w3.org/1999/xlink">
    <!-- Generator: Sketch 52.6 (67491) - http://www.bohemiancoding.com/sketch -->
    <title>Item89</title>
    <desc>Created with Sketch.</desc>
    <g id="PROD" stroke="none" stroke-width="1" fill="none" fill-rule="evenodd">
        <g id="1_Desktop-/-HP-_2" transform="translate(-550.000000, -5251.000000)" fill="#5FEB98">
            <g id="RS" transform="translate(0.000000, 4743.000000)">
                <g id="Group-4" transform="translate(360.000000, 504.000000)">
                    <path d="M241.925858,4 C233.428242,4 226.53774,11.2365017 226.53774,20.1534204 C226.53774,21.4260892 226.674345,22.6575713 226.935501,23.8396293 C214.150908,23.1600489 202.8087,16.734925 195.219103,6.96132312 C193.897252,9.34603256 193.13789,12.1178969 193.13789,15.0833387 C193.13789,20.6847287 195.853913,25.6353691 199.984197,28.5266748 C197.461027,28.4443014 195.086516,27.7194157 193.013339,26.5085269 L193.013339,26.7103417 C193.013339,34.5399318 198.316816,41.0721411 205.355976,42.554862 C204.066267,42.9214235 202.704237,43.1232383 201.30203,43.1232383 C200.309637,43.1232383 199.345369,43.0161529 198.405207,42.8266941 C200.365886,49.2476993 206.047035,53.9223888 212.780843,54.0500676 C207.513527,58.3829075 200.880163,60.9653131 193.672256,60.9653131 C192.426742,60.9653131 191.205336,60.8870584 190,60.7387863 C196.806128,65.3269837 204.897948,68 213.588418,68 C241.889698,68 257.370226,43.3785958 257.370226,22.0315336 C257.370226,21.3272411 257.354154,20.6353047 257.322012,19.9392496 C260.327316,17.6616256 262.938876,14.8156252 265,11.5783512 C262.243799,12.863376 259.274656,13.7282965 256.16489,14.1154514 C259.33894,12.1178969 261.781754,8.95475899 262.930841,5.18205805 C259.957679,7.0313405 256.663095,8.37814531 253.159586,9.10303108 C250.351154,5.96460519 246.353458,4 241.925858,4" id="Item89"></path>
                </g>
            </g>
        </g>
    </g>
</svg>

<?xml version="1.0" encoding="UTF-8"?>
<svg version="1.1" viewBox="0 0 75 64" xmlns="http://www.w3.org/2000/svg">
<title>Item89</title>
<desc>Created with Sketch.</desc>
<g fill="none" fill-rule="evenodd">
<g transform="translate(-550 -5251)" fill="#5FEB98">
<g transform="translate(0 4743)">
<g transform="translate(360 504)">
<path d="m241.93 4c-8.4976 0-15.388 7.2365-15.388 16.153 0 1.2727 0.1366 2.5042 0.39776 3.6862-12.785-0.67958-24.127-7.1047-31.716-16.878-1.3219 2.3847-2.0812 5.1566-2.0812 8.122 0 5.6014 2.716 10.552 6.8463 13.443-2.5232-0.082373-4.8977-0.80726-6.9709-2.0181v0.20181c0 7.8296 5.3035 14.362 12.343 15.845-1.2897 0.36656-2.6517 0.56838-4.0539 0.56838-0.99239 0-1.9567-0.10709-2.8968-0.29654 1.9607 6.421 7.6418 11.096 14.376 11.223-5.2673 4.3328-11.901 6.9152-19.109 6.9152-1.2455 0-2.4669-0.078255-3.6723-0.22653 6.8061 4.5882 14.898 7.2612 23.588 7.2612 28.301 0 43.782-24.621 43.782-45.968 0-0.70429-0.016072-1.3962-0.048214-2.0923 3.0053-2.2776 5.6169-5.1236 7.678-8.3609-2.7562 1.285-5.7253 2.1499-8.8351 2.5371 3.174-1.9976 5.6169-5.1607 6.766-8.9334-2.9732 1.8493-6.2677 3.1961-9.7713 3.921-2.8084-3.1384-6.8061-5.103-11.234-5.103"/>
</g>
</g>
</g>
</g>
</svg>
